Papirus/32x32/apps/gcompris.svg

<?xml version="1.0" encoding="UTF-8" standalone="no"?>
<svg xmlns="http://www.w3.org/2000/svg" height="32" width="32" version="1">
 <circle cy="4" cx="16" r="1" fill="#535353"/>
 <path fill="#fead00" d="m15.986 4c-0.07752 0-0.14998 0.015273-0.22536 0.021959-0.09141 0.0082-0.18437 0.010719-0.27316 0.027449-0.02436 0.00485-0.0469 0.015045-0.07102 0.020587-2.3565 0.50889-3.5542 3.9751-3.4111 7.2796-0.0024 0.09668-0.01501 0.20037-0.015 0.29508l-9.7059 6.2214c-0.18043 0.09015-0.27556 0.24676-0.28408 0.46801v3.1484c0.0002256 0.18033 0.077561 0.32724 0.23218 0.44194 0.16333 0.10673 0.3396 0.13556 0.52856 0.08647l9.0292-2.8163 1.3986 6.5892-3.5879 1.6003c-0.12029 0.11482-0.18033 0.24621-0.18029 0.39389l0.2716 2.223 6.3079-1 6.3079 1 0.27179-2.222c0.000045-0.14768-0.06-0.27907-0.18028-0.3939l-3.6166-1.6003 1.4272-6.5892 9.0306 2.8163c0.18896 0.04909 0.36523 0.02025 0.52856-0.08647 0.15462-0.11469 0.23059-0.2616 0.23082-0.44194v-3.1484c-0.0085-0.22125-0.10229-0.37787-0.28272-0.46801l-9.707-6.222c0.000004-0.09472-0.0076-0.1984-0.01-0.29508 0.14312-3.3045-1.0597-6.7707-3.4161-7.2796-0.02412-0.00554-0.04666-0.015743-0.07102-0.020587-0.08878-0.01673-0.18175-0.01925-0.27316-0.027449-0.07537-0.00669-0.14783-0.021959-0.22535-0.021959-0.0052 0-0.0099 0.00134-0.01502 0.00137-0.0047-0.0000202-0.009-0.00137-0.01366-0.00137z"/>
 <path d="M 9 13.560547 L 7 14.84375 L 7 20.689453 L 9 20.066406 L 9 13.560547 z M 23 13.560547 L 23 20.064453 L 25 20.689453 L 25 14.84375 L 23 13.560547 z M 6 15.484375 L 4 16.765625 L 4 21.625 L 6 21.001953 L 6 15.484375 z M 26 15.484375 L 26 21.001953 L 28 21.625 L 28 16.767578 L 26 15.484375 z" style="fill:#fe5600;fill-opacity:1"/>
 <path opacity=".2" fill="#fff" d="m15.986 4c-0.077 0-0.151 0.0148-0.226 0.0215-0.092 0.0082-0.185 0.0106-0.274 0.0273-0.024 0.0049-0.046 0.016-0.07 0.0215-2.356 0.5089-3.553 3.9748-3.41 7.2797-0.003 0.096-0.016 0.2-0.016 0.295l-9.7068 6.22c-0.1804 0.09-0.2747 0.248-0.2832 0.469v1c0.0085-0.221 0.1028-0.379 0.2832-0.469l9.7068-6.22c0-0.095 0.013-0.199 0.016-0.295-0.143-3.3049 1.054-6.7708 3.41-7.2797 0.024-0.0055 0.046-0.0166 0.07-0.0215 0.089-0.0167 0.182-0.0191 0.274-0.0273 0.075-0.0067 0.149-0.0215 0.226-0.0215 0.005 0 0.009 0.0019 0.014 0.002 0.005-0.0001 0.008-0.002 0.014-0.002 0.077 0 0.151 0.0148 0.226 0.0215 0.092 0.0082 0.185 0.0106 0.274 0.0273 0.024 0.0049 0.046 0.016 0.07 0.0215 2.356 0.5089 3.559 3.9748 3.416 7.2797 0.002 0.096 0.01 0.2 0.01 0.295l9.707 6.22c0.18 0.09 0.275 0.248 0.283 0.469v-1c-0.008-0.221-0.103-0.379-0.283-0.469l-9.707-6.22c0-0.095-0.008-0.199-0.01-0.295 0.143-3.3049-1.06-6.7708-3.416-7.2797-0.024-0.0055-0.046-0.0166-0.07-0.0215-0.089-0.0167-0.182-0.0191-0.274-0.0273-0.075-0.0067-0.149-0.0215-0.226-0.0215-0.006 0-0.009 0.0019-0.014 0.002-0.005-0.0001-0.009-0.002-0.014-0.002zm-2.99 21.869l-3.3944 1.516c-0.1203 0.115-0.1817 0.245-0.1817 0.392l0.0899 0.731c0.0268-0.042 0.0514-0.085 0.0918-0.123l3.5874-1.602-0.193-0.914zm5.984 0.002l-0.197 0.912 3.615 1.602c0.041 0.038 0.065 0.081 0.092 0.123l0.09-0.731c0-0.147-0.061-0.277-0.182-0.392l-3.418-1.514z"/>
 <rect rx=".625" ry="1" height="1" width="10" y="4" x="11" fill="#292929"/>
 <path fill="#292929" d="m20 15.333c0 2.578-1.791 4.667-4 4.667s-4-2.089-4-4.667c0-2.577 1.791-3.333 4-3.333 2.2091 0 4 0.756 4 3.3333z"/>
 <path opacity=".2" d="m11.789 19.195-9.0273 2.817c-0.1889 0.049-0.3659 0.019-0.5293-0.088-0.1546-0.115-0.2322-0.261-0.2324-0.442v1c0.0002 0.181 0.0778 0.327 0.2324 0.442 0.1634 0.107 0.3404 0.137 0.5293 0.088l9.0273-2.817 1.207 5.674 0.193-0.086-1.4-6.588zm8.422 0-1.428 6.588 0.197 0.088 1.231-5.676 9.029 2.817c0.189 0.049 0.366 0.019 0.53-0.088 0.154-0.115 0.23-0.261 0.23-0.442v-1c0 0.181-0.076 0.327-0.23 0.442-0.164 0.107-0.341 0.137-0.53 0.088l-9.029-2.817zm-10.701 9.313c-0.0531 0.083-0.0899 0.171-0.0899 0.269l0.2715 2.223 6.3086-1 6.309 1 0.271-2.223c0-0.098-0.037-0.186-0.09-0.269l-0.182 1.492-6.309-1-6.3084 1-0.1816-1.492z"/>
</svg>

<?xml version="1.0" encoding="UTF-8" standalone="no"?>
<svg xmlns="http://www.w3.org/2000/svg" height="32" width="32" version="1">
 <circle cy="4" cx="16" r="1" fill="#535353"/>
 <path fill="#fead00" d="m15.986 4c-0.07752 0-0.14998 0.015273-0.22536 0.021959-0.09141 0.0082-0.18437 0.010719-0.27316 0.027449-0.02436 0.00485-0.0469 0.015045-0.07102 0.020587-2.3565 0.50889-3.5542 3.9751-3.4111 7.2796-0.0024 0.09668-0.01501 0.20037-0.015 0.29508l-9.7059 6.2214c-0.18043 0.09015-0.27556 0.24676-0.28408 0.46801v3.1484c0.0002256 0.18033 0.077561 0.32724 0.23218 0.44194 0.16333 0.10673 0.3396 0.13556 0.52856 0.08647l9.0292-2.8163 1.3986 6.5892-3.5879 1.6003c-0.12029 0.11482-0.18033 0.24621-0.18029 0.39389l0.2716 2.223 6.3079-1 6.3079 1 0.27179-2.222c0.000045-0.14768-0.06-0.27907-0.18028-0.3939l-3.6166-1.6003 1.4272-6.5892 9.0306 2.8163c0.18896 0.04909 0.36523 0.02025 0.52856-0.08647 0.15462-0.11469 0.23059-0.2616 0.23082-0.44194v-3.1484c-0.0085-0.22125-0.10229-0.37787-0.28272-0.46801l-9.707-6.222c0.000004-0.09472-0.0076-0.1984-0.01-0.29508 0.14312-3.3045-1.0597-6.7707-3.4161-7.2796-0.02412-0.00554-0.04666-0.015743-0.07102-0.020587-0.08878-0.01673-0.18175-0.01925-0.27316-0.027449-0.07537-0.00669-0.14783-0.021959-0.22535-0.021959-0.0052 0-0.0099 0.00134-0.01502 0.00137-0.0047-0.0000202-0.009-0.00137-0.01366-0.00137z"/>
 <path fill="#fe5600" d="m9.0977 13.498l-2.0977 1.344v5.847l2.0977-0.654v-6.537zm13.902 0.063v6.503l2.098 0.655v-5.815l-2.098-1.343zm-16.902 1.859l-2.0977 1.346v4.859l2.0977-0.654v-5.551zm19.902 0.062v5.52l2.098 0.654v-4.828l-2.098-1.346z"/>
 <path opacity=".2" fill="#fff" d="m15.986 4c-0.077 0-0.151 0.0148-0.226 0.0215-0.092 0.0082-0.185 0.0106-0.274 0.0273-0.024 0.0049-0.046 0.016-0.07 0.0215-2.356 0.5089-3.553 3.9748-3.41 7.2797-0.003 0.096-0.016 0.2-0.016 0.295l-9.7068 6.22c-0.1804 0.09-0.2747 0.248-0.2832 0.469v1c0.0085-0.221 0.1028-0.379 0.2832-0.469l9.7068-6.22c0-0.095 0.013-0.199 0.016-0.295-0.143-3.3049 1.054-6.7708 3.41-7.2797 0.024-0.0055 0.046-0.0166 0.07-0.0215 0.089-0.0167 0.182-0.0191 0.274-0.0273 0.075-0.0067 0.149-0.0215 0.226-0.0215 0.005 0 0.009 0.0019 0.014 0.002 0.005-0.0001 0.008-0.002 0.014-0.002 0.077 0 0.151 0.0148 0.226 0.0215 0.092 0.0082 0.185 0.0106 0.274 0.0273 0.024 0.0049 0.046 0.016 0.07 0.0215 2.356 0.5089 3.559 3.9748 3.416 7.2797 0.002 0.096 0.01 0.2 0.01 0.295l9.707 6.22c0.18 0.09 0.275 0.248 0.283 0.469v-1c-0.008-0.221-0.103-0.379-0.283-0.469l-9.707-6.22c0-0.095-0.008-0.199-0.01-0.295 0.143-3.3049-1.06-6.7708-3.416-7.2797-0.024-0.0055-0.046-0.0166-0.07-0.0215-0.089-0.0167-0.182-0.0191-0.274-0.0273-0.075-0.0067-0.149-0.0215-0.226-0.0215-0.006 0-0.009 0.0019-0.014 0.002-0.005-0.0001-0.009-0.002-0.014-0.002zm-2.99 21.869l-3.3944 1.516c-0.1203 0.115-0.1817 0.245-0.1817 0.392l0.0899 0.731c0.0268-0.042 0.0514-0.085 0.0918-0.123l3.5874-1.602-0.193-0.914zm5.984 0.002l-0.197 0.912 3.615 1.602c0.041 0.038 0.065 0.081 0.092 0.123l0.09-0.731c0-0.147-0.061-0.277-0.182-0.392l-3.418-1.514z"/>
 <rect rx=".625" ry="1" height="1" width="10" y="4" x="11" fill="#292929"/>
 <path fill="#292929" d="m20 15.333c0 2.578-1.791 4.667-4 4.667s-4-2.089-4-4.667c0-2.577 1.791-3.333 4-3.333 2.2091 0 4 0.756 4 3.3333z"/>
 <path opacity=".2" d="m11.789 19.195-9.0273 2.817c-0.1889 0.049-0.3659 0.019-0.5293-0.088-0.1546-0.115-0.2322-0.261-0.2324-0.442v1c0.0002 0.181 0.0778 0.327 0.2324 0.442 0.1634 0.107 0.3404 0.137 0.5293 0.088l9.0273-2.817 1.207 5.674 0.193-0.086-1.4-6.588zm8.422 0-1.428 6.588 0.197 0.088 1.231-5.676 9.029 2.817c0.189 0.049 0.366 0.019 0.53-0.088 0.154-0.115 0.23-0.261 0.23-0.442v-1c0 0.181-0.076 0.327-0.23 0.442-0.164 0.107-0.341 0.137-0.53 0.088l-9.029-2.817zm-10.701 9.313c-0.0531 0.083-0.0899 0.171-0.0899 0.269l0.2715 2.223 6.3086-1 6.309 1 0.271-2.223c0-0.098-0.037-0.186-0.09-0.269l-0.182 1.492-6.309-1-6.3084 1-0.1816-1.492z"/>
</svg>
